X: 3190
T: Mr GIBSON
Q: "Reel."
R: Reel.
%R: reel
B: James Kerr "Merry Melodies" v.3 p.22 #190
Z: 2016 John Chambers <jc:trillian.mit.edu>
M: C
L: 1/8
K: Gm
|:\
vD2G2 GABG | FGAB cAFA |\
D2G2 GABc | dcBA BGGB :|\
B2(dB) fBdB | cdcB AFGA |
B2(dB) fBdB | dgg^f g2(ga) |\
bag^f gdd=e | fdcB AFFA |\
D2G2 GABc | dcBA (BG)G2 |]

%%sep 1 1 500
%%sep 1 1 500

